src/icons/k8s-quota.svg

<?xml version="1.0" encoding="UTF-8"?>
<svg xmlns="http://www.w3.org/2000/svg" xmlns:xlink="http://www.w3.org/1999/xlink" width="32.978184" height="32" viewBox="0 0 32.978184 32" version="1.1">
<g id="surface1">
<path style=" stroke:none;fill-rule:nonzero;fill:rgb(19.607843%,42.352942%,89.803922%);fill-opacity:1;" d="M 16.378906 0.847656 C 16.105469 0.859375 15.832031 0.929688 15.585938 1.046875 L 4.722656 6.238281 C 4.15625 6.507812 3.742188 7.023438 3.601562 7.636719 L 0.921875 19.292969 C 0.796875 19.835938 0.898438 20.402344 1.203125 20.871094 C 1.238281 20.925781 1.277344 20.980469 1.320312 21.035156 L 8.839844 30.382812 C 9.234375 30.871094 9.832031 31.15625 10.460938 31.15625 L 22.515625 31.152344 C 23.148438 31.152344 23.746094 30.871094 24.140625 30.378906 L 31.65625 21.03125 C 32.050781 20.542969 32.199219 19.898438 32.058594 19.289062 L 29.375 7.632812 C 29.234375 7.019531 28.820312 6.507812 28.25 6.234375 L 17.386719 1.046875 C 17.074219 0.898438 16.726562 0.828125 16.378906 0.847656 Z M 16.378906 0.847656 "/>
<path style=" stroke:none;fill-rule:nonzero;fill:rgb(100%,100%,100%);fill-opacity:1;" d="M 16.375 0.00390625 C 16.082031 0.0195312 15.796875 0.0898438 15.535156 0.214844 L 4.070312 5.695312 C 3.46875 5.980469 3.03125 6.523438 2.882812 7.167969 L 0.0546875 19.472656 C -0.078125 20.046875 0.03125 20.648438 0.351562 21.140625 C 0.390625 21.203125 0.433594 21.257812 0.476562 21.3125 L 8.414062 31.183594 C 8.828125 31.699219 9.460938 32 10.128906 32 L 22.851562 31.996094 C 23.519531 31.996094 24.152344 31.695312 24.566406 31.179688 L 32.5 21.3125 C 32.914062 20.792969 33.070312 20.117188 32.921875 19.472656 L 30.089844 7.164062 C 29.941406 6.519531 29.503906 5.980469 28.90625 5.691406 L 17.4375 0.214844 C 17.109375 0.0585938 16.742188 -0.015625 16.375 0.00390625 Z M 16.378906 0.847656 C 16.726562 0.828125 17.074219 0.898438 17.386719 1.046875 L 28.25 6.234375 C 28.820312 6.507812 29.230469 7.023438 29.375 7.632812 L 32.058594 19.289062 C 32.199219 19.902344 32.050781 20.542969 31.65625 21.03125 L 24.140625 30.378906 C 23.746094 30.871094 23.148438 31.15625 22.515625 31.152344 L 10.460938 31.15625 C 9.828125 31.15625 9.230469 30.871094 8.839844 30.382812 L 1.320312 21.035156 C 1.277344 20.984375 1.238281 20.929688 1.203125 20.871094 C 0.898438 20.402344 0.796875 19.835938 0.921875 19.292969 L 3.601562 7.636719 C 3.742188 7.023438 4.15625 6.511719 4.722656 6.238281 L 15.585938 1.046875 C 15.832031 0.929688 16.105469 0.859375 16.378906 0.847656 Z M 16.378906 0.847656 "/>
<path style=" stroke:none;fill-rule:nonzero;fill:rgb(100%,100%,100%);fill-opacity:1;" d="M 12.5625 5.734375 C 12.546875 5.734375 11.984375 5.945312 11.316406 6.203125 C 10.644531 6.457031 10.074219 6.679688 10.039062 6.6875 C 10.007812 6.699219 9.980469 6.722656 9.980469 6.738281 C 9.980469 6.75 10.117188 7.109375 10.277344 7.535156 C 10.441406 7.960938 10.574219 8.324219 10.570312 8.34375 C 10.566406 8.367188 10.417969 8.433594 10.113281 8.550781 C 9.867188 8.644531 9.667969 8.730469 9.671875 8.742188 C 9.683594 8.773438 12.707031 10.125 12.753906 10.117188 C 12.789062 10.113281 12.9375 9.796875 13.476562 8.585938 C 13.851562 7.742188 14.160156 7.042969 14.160156 7.027344 C 14.160156 7.011719 14.152344 7 14.140625 7.003906 C 13.773438 7.152344 13.246094 7.339844 13.226562 7.332031 C 13.210938 7.328125 13.0625 6.964844 12.894531 6.527344 C 12.699219 6.015625 12.582031 5.734375 12.5625 5.734375 Z M 16.492188 9.785156 C 12.457031 9.785156 8.894531 12.363281 7.621094 16.199219 C 7.152344 17.605469 7.035156 19.183594 7.285156 20.671875 C 7.632812 22.761719 8.699219 24.683594 10.308594 26.113281 C 10.402344 26.195312 10.484375 26.265625 10.488281 26.265625 C 10.496094 26.265625 10.925781 25.839844 11.441406 25.320312 C 11.972656 24.789062 12.394531 24.347656 12.410156 24.316406 C 12.464844 24.167969 12.339844 23.894531 12.113281 23.667969 C 11.878906 23.4375 11.628906 23.320312 11.472656 23.375 C 11.429688 23.386719 11.246094 23.558594 10.964844 23.839844 C 10.71875 24.082031 10.503906 24.28125 10.484375 24.28125 C 10.445312 24.28125 10.210938 23.996094 9.96875 23.648438 C 9.410156 22.851562 9.003906 21.953125 8.769531 20.984375 C 8.691406 20.667969 8.589844 20.070312 8.605469 20.023438 C 8.613281 20.003906 8.769531 19.996094 9.289062 19.996094 C 10.019531 19.996094 10.0625 19.992188 10.148438 19.882812 C 10.238281 19.769531 10.285156 19.601562 10.292969 19.355469 C 10.304688 19.089844 10.269531 18.914062 10.179688 18.757812 C 10.089844 18.605469 10.09375 18.605469 9.3125 18.605469 C 8.933594 18.605469 8.609375 18.597656 8.589844 18.585938 C 8.566406 18.570312 8.566406 18.523438 8.597656 18.234375 C 8.730469 17.003906 9.183594 15.75 9.863281 14.734375 C 10.019531 14.5 10.300781 14.132812 10.324219 14.132812 C 10.339844 14.132812 10.597656 14.382812 10.902344 14.683594 L 11.457031 15.234375 L 11.570312 15.222656 C 11.890625 15.191406 12.3125 14.804688 12.402344 14.464844 C 12.417969 14.402344 12.425781 14.324219 12.417969 14.292969 C 12.40625 14.246094 12.257812 14.078125 11.855469 13.675781 C 11.355469 13.175781 11.308594 13.117188 11.335938 13.085938 C 11.429688 12.96875 12.011719 12.546875 12.394531 12.316406 C 13.34375 11.738281 14.628906 11.304688 15.609375 11.226562 L 15.78125 11.214844 L 15.796875 12.847656 L 15.882812 12.929688 C 16.132812 13.164062 16.820312 13.171875 17.082031 12.945312 L 17.167969 12.871094 L 17.175781 12.050781 L 17.1875 11.230469 L 17.355469 11.234375 C 17.5625 11.238281 18.0625 11.324219 18.441406 11.421875 C 19.539062 11.699219 20.570312 12.210938 21.449219 12.917969 C 21.558594 13.007812 21.648438 13.097656 21.648438 13.117188 C 21.648438 13.136719 21.40625 13.394531 21.105469 13.695312 L 20.5625 14.238281 L 20.566406 14.359375 C 20.570312 14.722656 21.0625 15.214844 21.421875 15.21875 L 21.542969 15.21875 L 22.085938 14.675781 C 22.386719 14.378906 22.640625 14.132812 22.65625 14.132812 C 22.667969 14.132812 22.753906 14.238281 22.851562 14.363281 C 23.582031 15.34375 24.097656 16.53125 24.308594 17.71875 C 24.378906 18.128906 24.417969 18.542969 24.390625 18.578125 C 24.371094 18.601562 24.238281 18.605469 23.652344 18.605469 L 22.941406 18.605469 L 22.878906 18.65625 C 22.742188 18.773438 22.644531 19.132812 22.671875 19.40625 C 22.695312 19.625 22.761719 19.800781 22.851562 19.902344 L 22.933594 19.988281 L 23.652344 19.992188 C 24.367188 20 24.371094 20 24.371094 20.042969 C 24.371094 20.140625 24.300781 20.554688 24.234375 20.863281 C 24.011719 21.859375 23.5625 22.875 22.980469 23.691406 C 22.734375 24.035156 22.53125 24.28125 22.492188 24.28125 C 22.476562 24.28125 22.261719 24.082031 22.019531 23.835938 C 21.519531 23.335938 21.5 23.324219 21.308594 23.382812 C 20.964844 23.480469 20.589844 23.894531 20.558594 24.210938 L 20.546875 24.320312 L 21.378906 25.171875 C 22.445312 26.257812 22.460938 26.273438 22.511719 26.246094 C 22.589844 26.203125 23.113281 25.707031 23.339844 25.457031 C 23.972656 24.765625 24.445312 24.078125 24.847656 23.269531 C 25.84375 21.269531 26.082031 18.984375 25.53125 16.796875 C 25.078125 15.003906 24.050781 13.339844 22.640625 12.101562 C 20.941406 10.609375 18.761719 9.785156 16.492188 9.785156 Z M 14.730469 13.640625 C 14.359375 13.640625 13.941406 13.855469 13.820312 14.101562 C 13.78125 14.1875 13.777344 14.210938 13.800781 14.28125 C 13.8125 14.324219 14.191406 15.3125 14.644531 16.476562 L 15.46875 18.59375 L 15.394531 18.746094 C 15.15625 19.230469 15.242188 19.777344 15.625 20.15625 C 15.960938 20.492188 16.445312 20.605469 16.882812 20.453125 C 16.96875 20.425781 17.105469 20.355469 17.183594 20.300781 C 17.769531 19.902344 17.886719 19.070312 17.4375 18.519531 C 17.285156 18.335938 17.128906 18.230469 16.816406 18.105469 C 16.769531 18.085938 16.671875 17.847656 15.933594 15.945312 C 15.476562 14.769531 15.089844 13.785156 15.074219 13.757812 C 15.019531 13.671875 14.925781 13.636719 14.730469 13.640625 Z M 14.730469 13.640625 "/>
<path style=" stroke:none;fill-rule:nonzero;fill:rgb(100%,100%,100%);fill-opacity:1;" d="M 10.199219 25.976562 C 9.835938 25.667969 9.109375 24.8125 8.738281 24.261719 C 8.105469 23.316406 7.574219 22.011719 7.332031 20.789062 C 7.160156 19.921875 7.175781 18.175781 7.363281 17.296875 C 8.121094 13.742188 10.714844 11.007812 14.171875 10.117188 C 16.757812 9.453125 19.445312 9.914062 21.703125 11.417969 C 22.390625 11.875 23.570312 13.015625 24.023438 13.664062 C 25.789062 16.179688 26.253906 19.226562 25.300781 22.078125 C 24.859375 23.394531 24.167969 24.527344 23.152344 25.578125 L 22.507812 26.25 L 21.554688 25.296875 C 20.992188 24.738281 20.597656 24.289062 20.597656 24.21875 C 20.597656 23.914062 21.105469 23.402344 21.40625 23.402344 C 21.46875 23.402344 21.734375 23.609375 21.996094 23.863281 C 22.550781 24.402344 22.503906 24.410156 23.035156 23.640625 C 23.71875 22.652344 24.1875 21.464844 24.371094 20.257812 L 24.414062 19.984375 L 22.921875 19.984375 L 22.816406 19.78125 C 22.695312 19.542969 22.714844 18.898438 22.851562 18.734375 C 22.917969 18.652344 23.078125 18.628906 23.667969 18.628906 L 24.402344 18.628906 L 24.402344 18.378906 C 24.402344 17.726562 24.03125 16.402344 23.613281 15.566406 C 23.394531 15.128906 22.738281 14.117188 22.675781 14.117188 C 22.652344 14.117188 22.378906 14.367188 22.070312 14.671875 C 21.578125 15.164062 21.492188 15.222656 21.34375 15.1875 C 21.082031 15.121094 20.671875 14.714844 20.628906 14.480469 C 20.59375 14.292969 20.636719 14.226562 21.136719 13.695312 C 21.769531 13.023438 21.777344 13.097656 21.007812 12.566406 C 20.042969 11.898438 18.613281 11.34375 17.589844 11.238281 L 17.199219 11.195312 L 17.160156 12.019531 C 17.132812 12.621094 17.09375 12.871094 17.023438 12.941406 C 16.882812 13.085938 16.347656 13.113281 16.0625 12.996094 L 15.824219 12.894531 L 15.824219 11.210938 L 15.582031 11.214844 C 14.953125 11.21875 13.449219 11.6875 12.667969 12.128906 C 12.175781 12.402344 11.308594 13.023438 11.308594 13.101562 C 11.308594 13.136719 11.554688 13.417969 11.859375 13.726562 C 12.355469 14.234375 12.40625 14.308594 12.367188 14.472656 C 12.308594 14.703125 11.894531 15.117188 11.660156 15.175781 C 11.496094 15.214844 11.429688 15.167969 10.917969 14.660156 C 10.589844 14.335938 10.324219 14.117188 10.28125 14.144531 C 10.167969 14.214844 9.605469 15.074219 9.378906 15.523438 C 8.964844 16.34375 8.449219 18.246094 8.558594 18.539062 C 8.585938 18.609375 8.753906 18.628906 9.300781 18.628906 C 10.082031 18.628906 10.167969 18.667969 10.246094 19.023438 C 10.269531 19.132812 10.269531 19.351562 10.246094 19.507812 C 10.183594 19.925781 10.058594 19.984375 9.261719 19.984375 C 8.492188 19.984375 8.523438 19.941406 8.695312 20.761719 C 8.949219 21.960938 9.523438 23.15625 10.332031 24.175781 L 10.457031 24.332031 L 10.972656 23.867188 C 11.269531 23.601562 11.542969 23.402344 11.621094 23.402344 C 11.796875 23.402344 12.238281 23.800781 12.339844 24.046875 C 12.414062 24.230469 12.40625 24.257812 12.09375 24.613281 C 11.914062 24.816406 11.484375 25.265625 11.136719 25.609375 L 10.5 26.234375 Z M 10.199219 25.976562 "/>
</g>
</svg>

<svg role="img" viewBox="0 0 32.978 32" xmlns="http://www.w3.org/2000/svg"><path d="M16.379.848a2.066 2.066 0 0 0-.793.199L4.723 6.238a2.06 2.06 0 0 0-1.121 1.399L.922 19.293a2.046 2.046 0 0 0 .398 1.742l7.52 9.348c.394.488.992.773 1.62.773l12.056-.004c.632 0 1.23-.28 1.625-.773l7.515-9.348a2.045 2.045 0 0 0 .403-1.742L29.375 7.633a2.063 2.063 0 0 0-1.125-1.399L17.387 1.047a2.082 2.082 0 0 0-1.008-.2m0 0" style="stroke:none;fill-rule:nonzero;fill:rgb(19.607843%,42.352942%,89.803922%);fill-opacity:1"/><path d="M16.375.004a2.22 2.22 0 0 0-.84.21L4.07 5.696a2.171 2.171 0 0 0-1.187 1.473L.055 19.473a2.164 2.164 0 0 0 .297 1.668c.039.062.082.117.125.172l7.937 9.87A2.2 2.2 0 0 0 10.13 32l12.723-.004c.668 0 1.3-.3 1.714-.816l7.934-9.867a2.17 2.17 0 0 0 .422-1.84L30.09 7.164a2.185 2.185 0 0 0-1.184-1.473L17.438.215a2.206 2.206 0 0 0-1.063-.211m.004.844c.348-.02.695.05 1.008.199L28.25 6.234c.57.274.98.79 1.125 1.399l2.684 11.656a2.042 2.042 0 0 1-.403 1.742l-7.515 9.348a2.065 2.065 0 0 1-1.625.773l-12.055.004c-.633 0-1.23-.285-1.621-.773l-7.52-9.348a2.046 2.046 0 0 1-.398-1.742l2.68-11.656a2.068 2.068 0 0 1 1.12-1.399l10.864-5.191c.246-.117.52-.188.793-.2m-3.816 4.887c-.016 0-.579.211-1.247.47-.671.253-1.242.476-1.277.484-.031.011-.059.035-.059.05 0 .012.137.371.297.797.164.426.297.79.293.809-.004.023-.152.09-.457.207-.246.094-.445.18-.441.191.012.031 3.035 1.383 3.082 1.375.035-.004.184-.32.723-1.531.375-.844.683-1.543.683-1.559 0-.015-.008-.027-.02-.023-.367.148-.894.336-.913.328-.016-.004-.165-.367-.332-.805-.196-.511-.313-.793-.332-.793m3.93 4.051A9.337 9.337 0 0 0 7.62 16.2a9.34 9.34 0 0 0 2.867 10.066c.008 0 .438-.425.953-.945.532-.53.954-.972.97-1.004.054-.148-.071-.421-.298-.648-.234-.23-.484-.348-.64-.293-.043.012-.227.184-.508.465-.246.242-.461.441-.48.441-.04 0-.274-.285-.516-.633a7.838 7.838 0 0 1-1.2-2.664c-.078-.316-.18-.914-.164-.96.008-.02.165-.028.684-.028.73 0 .774-.004.86-.113.09-.113.136-.281.144-.528.012-.265-.023-.44-.113-.597-.09-.153-.086-.153-.867-.153-.38 0-.704-.007-.723-.02-.024-.015-.024-.062.008-.35a7.971 7.971 0 0 1 1.265-3.5c.157-.235.438-.602.461-.602.016 0 .274.25.578.55l.555.551.113-.011c.32-.032.742-.418.832-.758a.478.478 0 0 0 .016-.172c-.012-.047-.16-.215-.563-.617-.5-.5-.546-.559-.52-.59.095-.117.677-.54 1.06-.77.949-.578 2.234-1.011 3.214-1.09l.172-.011.016 1.633.086.082c.25.234.937.242 1.199.015l.086-.074.008-.82.012-.82.167.003c.207.004.707.09 1.086.188a7.893 7.893 0 0 1 3.008 1.496c.11.09.2.18.2.2 0 .019-.243.277-.544.577l-.543.543.004.121c.004.364.497.856.856.86h.121l.543-.543c.3-.297.555-.543.57-.543.012 0 .098.105.196.23a8.084 8.084 0 0 1 1.457 3.356c.07.41.109.824.082.86-.02.023-.153.026-.739.026h-.71l-.063.051c-.137.117-.234.477-.207.75.023.219.09.395.18.496l.082.086.718.004c.715.008.72.008.72.051 0 .098-.071.512-.138.82a8.023 8.023 0 0 1-1.254 2.828c-.246.344-.449.59-.488.59-.015 0-.23-.199-.472-.445-.5-.5-.52-.512-.711-.453-.344.097-.72.512-.75.828l-.012.11.832.85c1.066 1.087 1.082 1.102 1.133 1.075.078-.043.601-.539.828-.789a9.355 9.355 0 0 0 2.191-8.66 9.372 9.372 0 0 0-2.89-4.695 9.307 9.307 0 0 0-6.149-2.317m-1.763 3.856c-.37 0-.789.214-.91.46-.039.086-.043.11-.02.18a160 160 0 0 0 .845 2.196l.824 2.117-.074.152a1.198 1.198 0 0 0 .23 1.41 1.21 1.21 0 0 0 1.559.145c.586-.399.703-1.23.253-1.781-.152-.184-.308-.29-.62-.415-.047-.02-.145-.257-.883-2.16-.457-1.175-.844-2.16-.86-2.187-.054-.086-.148-.121-.344-.117M10.2 25.977c-.364-.309-1.09-1.165-1.462-1.715-.633-.946-1.164-2.25-1.406-3.473-.172-.867-.156-2.613.031-3.492.758-3.555 3.352-6.29 6.809-7.18 2.586-.664 5.273-.203 7.531 1.301.688.457 1.867 1.598 2.32 2.246 1.766 2.516 2.23 5.563 1.278 8.414-.442 1.317-1.133 2.45-2.149 3.5l-.644.672-.953-.953c-.563-.559-.957-1.008-.957-1.078 0-.305.507-.817.808-.817.063 0 .328.207.59.461.555.54.508.547 1.04-.222a8.187 8.187 0 0 0 1.335-3.383l.043-.274h-1.492l-.106-.203c-.12-.238-.101-.883.036-1.047.066-.082.226-.105.816-.105h.734v-.25c0-.652-.37-1.977-.789-2.813-.218-.437-.875-1.449-.937-1.449-.024 0-.297.25-.606.555-.492.492-.578.55-.726.515-.262-.066-.672-.472-.715-.707-.035-.187.008-.253.508-.785.633-.672.64-.597-.13-1.129-.964-.668-2.394-1.222-3.417-1.328l-.39-.043-.04.825c-.027.601-.066.851-.137.921-.14.145-.675.172-.96.055l-.239-.101V11.21l-.242.004c-.629.004-2.133.473-2.914.914-.492.273-1.36.894-1.36.973 0 .035.247.316.551.625.496.507.547.582.508.746-.058.23-.472.644-.707.703-.164.039-.23-.008-.742-.516-.328-.324-.594-.543-.637-.515-.113.07-.676.93-.902 1.378-.414.82-.93 2.723-.82 3.016.027.07.195.09.742.09.781 0 .867.039.945.394.024.11.024.329 0 .485-.062.418-.187.476-.984.476-.77 0-.739-.043-.567.778.254 1.199.828 2.394 1.637 3.414l.125.156.516-.465c.297-.265.57-.465.648-.465.176 0 .617.399.719.645.074.183.066.21-.246.566-.18.203-.61.653-.957.996l-.637.625Zm0 0" style="stroke:none;fill-rule:nonzero;fill:rgb(100%,100%,100%);fill-opacity:1"/></svg>
